packages/astro-components-stencil/src/icons/border-vertical.svg

<svg xmlns="http://www.w3.org/2000/svg" viewBox="0 0 24 24"><g xmlns="http://www.w3.org/2000/svg" id="border-vertical" fill-rule="nonzero">
            <path d="M3 9h2V7H3v2zm0-4h2V3H3v2zm4 16h2v-2H7v2zm0-8h2v-2H7v2zm-4 0h2v-2H3v2zm0 8h2v-2H3v2zm0-4h2v-2H3v2zM7 5h2V3H7v2zm12 12h2v-2h-2v2zm-7 4c.55 0 1-.45 1-1V4c0-.55-.45-1-1-1s-1 .45-1 1v16c0 .55.45 1 1 1zm7 0h2v-2h-2v2zm0-8h2v-2h-2v2zm0-10v2h2V3h-2zm0 6h2V7h-2v2zm-4-4h2V3h-2v2zm0 16h2v-2h-2v2zm0-8h2v-2h-2v2z"/>
        </g></svg>

<svg width="24" height="24" viewBox="0 0 24 24" fill="none" xmlns="http://www.w3.org/2000/svg">
<path fill-rule="evenodd" clip-rule="evenodd" d="M3 5H5V3H3V5ZM3 9H5V7H3V9ZM9 21H7V19H9V21ZM7 13H9V11H7V13ZM5 13H3V11H5V13ZM3 21H5V19H3V21ZM5 17H3V15H5V17ZM7 5H9V3H7V5ZM21 17H19V15H21V17ZM12 21C12.55 21 13 20.55 13 20V4C13 3.45 12.55 3 12 3C11.45 3 11 3.45 11 4V20C11 20.55 11.45 21 12 21ZM21 21H19V19H21V21ZM19 13H21V11H19V13ZM19 5V3H21V5H19ZM19 9H21V7H19V9ZM17 5H15V3H17V5ZM15 21H17V19H15V21ZM17 13H15V11H17V13Z" fill="black"/>
</svg>
